Numix/16x16/status/nm-vpn-standalone-lock.svg

<?xml version="1.0" encoding="UTF-8" standalone="no"?>
<svg
   xmlns:dc="http://purl.org/dc/elements/1.1/"
   xmlns:cc="http://creativecommons.org/ns#"
   xmlns:rdf="http://www.w3.org/1999/02/22-rdf-syntax-ns#"
   xmlns:svg="http://www.w3.org/2000/svg"
   xmlns="http://www.w3.org/2000/svg"
   xmlns:sodipodi="http://sodipodi.sourceforge.net/DTD/sodipodi-0.dtd"
   xmlns:inkscape="http://www.inkscape.org/namespaces/inkscape"
   width="16"
   height="16"
   viewBox="0 0 16 16"
   id="svg2989"
   version="1.1"
   inkscape:version="0.48.5 r10040"
   sodipodi:docname="nm-vpn-standalone-lock.svg">
  <metadata
     id="metadata3001">
    <rdf:RDF>
      <cc:Work
         rdf:about="">
        <dc:format>image/svg+xml</dc:format>
        <dc:type
           rdf:resource="http://purl.org/dc/dcmitype/StillImage" />
      </cc:Work>
    </rdf:RDF>
  </metadata>
  <defs
     id="defs2999" />
  <sodipodi:namedview
     pagecolor="#ffffff"
     bordercolor="#666666"
     borderopacity="1"
     objecttolerance="10"
     gridtolerance="10"
     guidetolerance="10"
     inkscape:pageopacity="0"
     inkscape:pageshadow="2"
     inkscape:window-width="1280"
     inkscape:window-height="998"
     id="namedview2997"
     showgrid="false"
     inkscape:zoom="14.75"
     inkscape:cx="8"
     inkscape:cy="8"
     inkscape:window-x="0"
     inkscape:window-y="0"
     inkscape:window-maximized="1"
     inkscape:current-layer="svg2989" />
  <path
     inkscape:connector-curvature="0"
     id="path2995"
     d="m 7.109375,1.441406 c -1.96875,0 -3.554687,1.296875 -3.554687,2.910156 l 0,2.179688 -0.886719,0 c -0.492188,0 -0.890625,0.328125 -0.890625,0.730469 l 0,6.542969 c 0,0.402343 0.398437,0.726562 0.890625,0.726562 l 10.664062,0 c 0.492188,0 0.890625,-0.324219 0.890625,-0.726562 l 0,-6.542969 c 0,-0.402344 -0.398437,-0.730469 -0.890625,-0.730469 l -0.886719,0 0,-2.179688 c 0,-1.613281 -1.585937,-2.910156 -3.554687,-2.910156 z m 0,1.457032 1.78125,0 c 0.984375,0 1.777344,0.648437 1.777344,1.453124 l 0,2.179688 -5.335938,0 0,-2.179688 c 0,-0.804687 0.792969,-1.453124 1.777344,-1.453124 z"
     style="fill:#ececec;fill-rule:evenodd;fill-opacity:1" />
</svg>

<svg width="16" xmlns="http://www.w3.org/2000/svg" height="16" viewBox="0 0 16 16" xmlns:xlink="http://www.w3.org/1999/xlink">
<g style="fill-rule:evenodd">
<path style="fill:#000;fill-opacity:.302" d="M 7.109375 2.183594 C 5.140625 2.183594 3.554688 3.480469 3.554688 5.089844 L 3.554688 7.273438 L 2.667969 7.273438 C 2.175781 7.273438 1.777344 7.597656 1.777344 8 L 1.777344 14.546875 C 1.777344 14.949219 2.175781 15.273438 2.667969 15.273438 L 13.332031 15.273438 C 13.824219 15.273438 14.222656 14.949219 14.222656 14.546875 L 14.222656 8 C 14.222656 7.597656 13.824219 7.273438 13.332031 7.273438 L 12.445312 7.273438 L 12.445312 5.089844 C 12.445312 3.480469 10.859375 2.183594 8.890625 2.183594 Z M 7.109375 3.636719 L 8.890625 3.636719 C 9.875 3.636719 10.667969 4.285156 10.667969 5.089844 L 10.667969 7.273438 L 5.332031 7.273438 L 5.332031 5.089844 C 5.332031 4.285156 6.125 3.636719 7.109375 3.636719 Z "/>
<path style="fill:#dcdcdc" d="M 7.109375 1.441406 C 5.140625 1.441406 3.554688 2.738281 3.554688 4.351562 L 3.554688 6.53125 L 2.667969 6.53125 C 2.175781 6.53125 1.777344 6.859375 1.777344 7.261719 L 1.777344 13.804688 C 1.777344 14.207031 2.175781 14.53125 2.667969 14.53125 L 13.332031 14.53125 C 13.824219 14.53125 14.222656 14.207031 14.222656 13.804688 L 14.222656 7.261719 C 14.222656 6.859375 13.824219 6.53125 13.332031 6.53125 L 12.445312 6.53125 L 12.445312 4.351562 C 12.445312 2.738281 10.859375 1.441406 8.890625 1.441406 Z M 7.109375 2.898438 L 8.890625 2.898438 C 9.875 2.898438 10.667969 3.546875 10.667969 4.351562 L 10.667969 6.53125 L 5.332031 6.53125 L 5.332031 4.351562 C 5.332031 3.546875 6.125 2.898438 7.109375 2.898438 Z "/>
</g>
</svg>
